img/background.svg

<svg width="1600" height="5563" fill="none" xmlns="http://www.w3.org/2000/svg"><path d="M513.797 244.09C559.291 45.102 774.76-116.388 903.242-58.392c71.823-13.832 230.468-41.497 290.458-41.497 74.99 0 123.98-20.499 148.98 0 25 20.498-61.99 215.487-169.98 178.489-107.98-36.998-381.442-29.498-546.919 389.476C493.4 803.256 98.023 806.722-83.118 766.558c-37.328-122.993-78.788-360.678 53.993-327.48 165.976 41.497 497.429 4 542.922-194.988Z" fill="#9A9FFF" fill-opacity=".1"/><path d="M854.475 4015.81C986.147 3727.15 1517.23 3305.36 1717 3395.5c111.68-21.5-124.28 212-31 212 116.6 0 418.42-158.2 457.28-126.34 38.87 31.86-150.88 510.85-318.78 453.34-167.9-57.51-538.61-221.76-795.9 429.46-205.84 520.97-820.601 526.36-1102.253 463.93-58.04-191.17-122.506-560.61 83.952-509.01C268.37 4383.38 627 4514.5 854.475 4015.81Z" fill="#9A9FFF" fill-opacity=".05"/><path d="M940.306 398.775C1024.27 158.403 1283.79 58.9 1518.76 81.515l127.53-19.678c26.45 124.223 50.39 347.718-77.62 266.51-303.08-192.279-332.78 12.352-645.296 404.669C658.646 1065.34-65.521 1167-109.973 1031.42c-88.977-51.665-4.351-114.192 246.629-170.511 313.725-70.399 719.687-221.763 803.65-462.134Z" fill="#9A9FFF" fill-opacity=".1"/><path d="M1040 4490.5c163.5-380 374.7-417.11 609.67-394.5l77.62 105.84c26.45 124.22 105.63 299.67-31.79 235.66-351-163.5-369.48 128.68-682 521-264.728 332.32-1248.527 620.58-1162.5 200-32.527-241.42-24.5 0 422-123 309.98-85.39 666.368-311.12 767-545Z" fill="#9A9FFF" fill-opacity=".05"/><path d="M1354.19 2732.12c94.95-291.36 354.39-436.08 584.67-334.42l-36.13 332.78c-83.92-49.49-257.01-129.23-280.23 110.18-40.91 422.06-379.3 561.83-616.72 547.21-237.41-14.62-416.044-198.71-713.428-111.4-277.735 81.54-367.412 261.93-457.664 233.67 85.131-359.02 458.225-590.86 802.069-475.16 343.843 115.7 622.483-11.51 717.433-302.86Z" fill="#9A9FFF" fill-opacity=".1"/></svg>

<svg width="1600" height="5563" viewBox="0 0 1600 5563" fill="none" xmlns="http://www.w3.org/2000/svg">
<path d="M513.797 244.09C559.291 45.1018 774.76 -116.388 903.242 -58.392C975.065 -72.2244 1133.71 -99.8894 1193.7 -99.8894C1268.69 -99.8894 1317.68 -120.388 1342.68 -99.8894C1367.68 -79.3907 1280.69 115.598 1172.7 78.5997C1064.72 41.602 791.258 49.1015 625.781 468.076C493.4 803.256 98.0233 806.722 -83.1175 766.558C-120.446 643.565 -161.906 405.88 -29.1252 439.078C136.851 480.575 468.304 443.078 513.797 244.09Z" fill="#9A9FFF" fill-opacity="0.1"/>
<path d="M854.475 4015.81C986.147 3727.15 1517.23 3305.36 1717 3395.5C1828.68 3374 1592.72 3607.5 1686 3607.5C1802.6 3607.5 2104.42 3449.3 2143.28 3481.16C2182.15 3513.02 1992.4 3992.01 1824.5 3934.5C1656.6 3876.99 1285.89 3712.74 1028.6 4363.96C822.76 4884.93 207.999 4890.32 -73.6526 4827.89C-131.693 4636.72 -196.159 4267.28 10.2987 4318.88C268.371 4383.38 627 4514.5 854.475 4015.81Z" fill="#9A9FFF" fill-opacity="0.05"/>
<path d="M940.306 398.775C1024.27 158.403 1283.79 58.9003 1518.76 81.5151L1646.29 61.8367C1672.74 186.06 1696.68 409.555 1568.67 328.347C1265.59 136.068 1235.89 340.699 923.374 733.016C658.646 1065.34 -65.5211 1167 -109.973 1031.42C-198.95 979.755 -114.324 917.228 136.656 860.909C450.381 790.51 856.343 639.146 940.306 398.775Z" fill="#9A9FFF" fill-opacity="0.1"/>
<path d="M1040 4490.5C1203.5 4110.5 1414.7 4073.39 1649.67 4096L1727.29 4201.84C1753.74 4326.06 1832.92 4501.51 1695.5 4437.5C1344.5 4274 1326.02 4566.18 1013.5 4958.5C748.772 5290.82 -235.027 5579.08 -149 5158.5C-181.527 4917.08 -173.5 5158.5 273 5035.5C582.98 4950.11 939.368 4724.38 1040 4490.5Z" fill="#9A9FFF" fill-opacity="0.05"/>
<path d="M1354.19 2732.12C1449.14 2440.76 1708.58 2296.04 1938.86 2397.7L1902.73 2730.48C1818.81 2680.99 1645.72 2601.25 1622.5 2840.66C1581.59 3262.72 1243.2 3402.49 1005.78 3387.87C768.37 3373.25 589.736 3189.16 292.352 3276.47C14.617 3358.01 -75.0604 3538.4 -165.312 3510.14C-80.1808 3151.12 292.913 2919.28 636.757 3034.98C980.6 3150.68 1259.24 3023.47 1354.19 2732.12Z" fill="#9A9FFF" fill-opacity="0.1"/>
</svg>
